proprietary/assets/icons/energie-en-chemie/kernreactorgebouw-naast-schoorsteen.svg

<svg height="64" viewBox="0 0 64 64" width="64" xmlns="http://www.w3.org/2000/svg"><path d="m0 0h64v64h-64z" fill="none"/><path d="m51.9 6h-3.8c-1.2 0-2.1.9-2.1 2.1v41.5c1.6.3 3.6.6 5.7 1 .3.1.3.3.3.4h-9.2l-1.1-19.7c-.4-7.5-7.2-13.3-15.2-13.3s-14.8 5.8-15.2 13.3l-1.3 23.7h44v-46.9c0-1.2-.9-2.1-2.1-2.1zm-25.4 28.3c1 0 1.7.8 1.7 1.7 0 1-.8 1.7-1.7 1.7-1 0-1.7-.8-1.7-1.7-.1-.9.7-1.7 1.7-1.7zm-4.2-5.4 2.6 4.5c-.9.5-1.6 1.6-1.6 2.7h-5.2c.1-3.1 1.8-5.8 4.2-7.2zm4.2 15.5c-1.5 0-2.9-.4-4.2-1.1l2.6-4.5c.5.3 1 .4 1.6.4s1.1-.2 1.6-.4l2.6 4.5c-1.3.6-2.7 1.1-4.2 1.1zm3.2-8.3c0-1.2-.6-2.2-1.6-2.7l2.6-4.5c2.5 1.4 4.2 4.1 4.2 7.2z"/></svg>

<?xml version="1.0" encoding="utf-8"?>
<!-- Generator: Adobe Illustrator 21.0.2, SVG Export Plug-In . SVG Version: 6.00 Build 0)  -->
<svg version="1.2" baseProfile="tiny" xmlns="http://www.w3.org/2000/svg" xmlns:xlink="http://www.w3.org/1999/xlink" x="0px"
	 y="0px" width="64px" height="64px" viewBox="0 0 64 64" xml:space="preserve">
<g id="Box">
	<rect fill="none" width="64" height="64"/>
</g>
<g id="Icon">
	<g>
		<path d="M51.9,6h-3.8C46.9,6,46,6.9,46,8.1v41.5c1.6,0.3,3.6,0.6,5.7,1C52,50.7,52,50.9,52,51h-9.2l-1.1-19.7
			C41.3,23.8,34.5,18,26.5,18c-8,0-14.8,5.8-15.2,13.3L10,55h44V8.1C54,6.9,53.1,6,51.9,6z M26.5,34.3c1,0,1.7,0.8,1.7,1.7
			c0,1-0.8,1.7-1.7,1.7c-1,0-1.7-0.8-1.7-1.7C24.7,35.1,25.5,34.3,26.5,34.3z M22.3,28.9l2.6,4.5c-0.9,0.5-1.6,1.6-1.6,2.7h-5.2
			C18.2,33,19.9,30.3,22.3,28.9z M26.5,44.4c-1.5,0-2.9-0.4-4.2-1.1l2.6-4.5c0.5,0.3,1,0.4,1.6,0.4c0.6,0,1.1-0.2,1.6-0.4l2.6,4.5
			C29.4,43.9,28,44.4,26.5,44.4z M29.7,36.1c0-1.2-0.6-2.2-1.6-2.7l2.6-4.5c2.5,1.4,4.2,4.1,4.2,7.2H29.7z"/>
	</g>
</g>
</svg>
